logo/aws-xray.svg

<?xml version="1.0" encoding="UTF-8"?>
<svg width="256px" height="256px" viewBox="0 0 256 256" version="1.1" xmlns="http://www.w3.org/2000/svg" xmlns:xlink="http://www.w3.org/1999/xlink" preserveAspectRatio="xMidYMid">
    <title>AWS X-Ray</title>
    <defs>
        <linearGradient x1="0%" y1="100%" x2="100%" y2="0%" id="linearGradient-1">
            <stop stop-color="#2E27AD" offset="0%"></stop>
            <stop stop-color="#527FFF" offset="100%"></stop>
        </linearGradient>
    </defs>
    <g>
        <rect fill="url(#linearGradient-1)" x="0" y="0" width="256" height="256"></rect>
        <path d="M152,135.040828 L145.6,135.040828 L145.6,179.467012 L132.8,179.467012 L132.8,147.734024 L126.4,147.734024 L126.4,179.467012 L113.6,179.467012 L113.6,157.25392 L107.2,157.25392 L107.2,179.467012 L100.8,179.467012 L100.8,185.81361 L158.4,185.81361 L158.4,179.467012 L152,179.467012 L152,135.040828 Z M177.6,158.84057 C177.6,133.470046 156.784,112.827737 131.2,112.827737 C105.616,112.827737 84.8,133.470046 84.8,158.84057 C84.8,184.211094 105.616,204.853402 131.2,204.853402 C156.784,204.853402 177.6,184.211094 177.6,158.84057 L177.6,158.84057 Z M184,158.84057 C184,187.711242 160.3136,211.2 131.2,211.2 C102.0864,211.2 78.4,187.711242 78.4,158.84057 C78.4,129.969897 102.0864,106.481139 131.2,106.481139 C160.3136,106.481139 184,129.969897 184,158.84057 L184,158.84057 Z M217.6,123.84543 C217.6,141.9491 207.5776,153.722039 190.1088,156.140092 L189.2224,149.853788 C199.2512,148.467056 211.2,142.828104 211.2,123.84543 C211.2,106.027357 197.6096,99.5823878 186.2112,97.313479 C184.7808,97.0310554 183.728,95.8252019 183.648,94.381351 C182.8992,81.3486128 175.184,75.5129162 167.8656,75.5129162 C163.2672,75.5129162 158.9792,77.6612397 156.1024,81.4089053 C155.3984,82.3291622 154.2304,82.7924637 153.0848,82.6242787 C151.9328,82.4529206 150.96,81.6754624 150.5568,80.5870211 C147.9648,73.6470166 144.1248,67.5955357 139.4528,63.0862781 C127.1712,51.2086208 110.3648,47.9813757 94.496,54.4612518 C81.3216,59.8209536 71.0016,75.246359 71.0016,89.5769766 C71.0016,91.185839 71.1008,92.7883549 71.2928,94.3400979 C71.4944,95.9330941 70.4608,97.4245446 68.8864,97.8085136 C61.088,99.7251862 48,105.624349 48,123.601086 C48,124.276999 48.0352,124.889446 48.0672,125.533625 C48.6528,136.065804 57.8176,145.741192 70.3584,149.057289 L68.7104,155.188103 C53.5296,151.17388 42.4128,139.121691 41.6768,125.876342 C41.6352,125.11475 41.6,124.397584 41.6,123.601086 C41.6,102.831846 56.1216,95.1302496 64.6912,92.3980394 C64.6304,91.4650893 64.6016,90.5226195 64.6016,89.5769766 C64.6016,72.5807882 76.4096,54.9626333 92.064,48.5906493 C110.3616,41.1143571 129.7536,44.8334634 143.92,58.5421142 C148.2016,62.6737491 151.8592,67.9001725 154.6432,73.8342413 C158.3744,70.8259539 162.9952,69.1663187 167.8656,69.1663187 C177.696,69.1663187 188.0096,76.1317094 189.824,91.6078877 C207.7632,95.9267475 217.6,107.299851 217.6,123.84543 L217.6,123.84543 Z" fill="#FFFFFF"></path>
    </g>
</svg>

<svg viewBox="0 0 256 256" xmlns="http://www.w3.org/2000/svg"><defs><linearGradient id="a" x1="0%" x2="100%" y1="100%" y2="0%"><stop offset="0%" stop-color="#2E27AD"/><stop offset="100%" stop-color="#527FFF"/></linearGradient></defs><path fill="url(#a)" d="M0 0h256v256H0Z"/><path fill="#FFF" d="M152 135.04h-6.4v44.42h-12.8v-31.74h-6.4v31.73h-12.8v-22.22h-6.4v22.21h-6.4v6.34h57.6v-6.35H152V135Zm25.6 23.79c0-25.38-20.82-46.02-46.4-46.02 -25.59 0-46.4 20.64-46.4 46.01 0 25.37 20.81 46.01 46.4 46.01 25.58 0 46.4-20.65 46.4-46.02v0Zm6.4 0c0 28.87-23.69 52.35-52.8 52.35 -29.12 0-52.8-23.49-52.8-52.36 0-28.88 23.68-52.36 52.8-52.36 29.11 0 52.8 23.48 52.8 52.35v0Zm33.6-35c0 18.1-10.03 29.87-27.5 32.29l-.89-6.29c10.02-1.39 21.97-7.03 21.97-26.01 0-17.82-13.6-24.27-24.99-26.54 -1.44-.29-2.49-1.49-2.57-2.94 -.75-13.04-8.47-18.87-15.79-18.87 -4.6 0-8.89 2.14-11.77 5.89 -.71.92-1.88 1.38-3.02 1.21 -1.16-.18-2.13-.95-2.53-2.04 -2.6-6.95-6.44-13-11.11-17.51 -12.29-11.88-29.09-15.11-44.96-8.63 -13.18 5.35-23.5 20.78-23.5 35.11 0 1.6.09 3.21.29 4.76 .2 1.59-.84 3.08-2.41 3.46 -7.8 1.91-20.89 7.81-20.89 25.79 0 .67.03 1.28.06 1.93 .58 10.53 9.75 20.2 22.29 23.52l-1.65 6.13c-15.19-4.02-26.3-16.07-27.04-29.32 -.05-.77-.08-1.48-.08-2.28 0-20.77 14.52-28.48 23.09-31.21 -.07-.94-.09-1.88-.09-2.83 0-17 11.8-34.62 27.46-40.99 18.29-7.48 37.68-3.76 51.85 9.95 4.28 4.13 7.93 9.35 10.72 15.29 3.73-3.01 8.35-4.67 13.22-4.67 9.83 0 20.14 6.96 21.95 22.44 17.93 4.31 27.77 15.69 27.77 32.23v0Z"/></svg>
